static/icons/map.svg

<svg width="400" height="400" fill="none" xmlns="http://www.w3.org/2000/svg"><path d="M67.192 161.016C67.192 77.881 134.81 28 200.21 28c65.399 0 133.016 49.881 133.016 133.016 0 79.81-119.715 201.741-125.257 207.284-2.217 2.217-4.434 3.325-7.759 3.325-3.326 0-5.543-1.108-7.76-3.325-5.542-5.543-125.257-128.583-125.257-207.284Z" fill="#0B9072"/><mask id="a" style="mask-type:alpha" maskUnits="userSpaceOnUse" x="67" y="28" width="267" height="344"><path d="M67.192 161.016C67.192 77.881 134.81 28 200.21 28c65.399 0 133.016 49.881 133.016 133.016 0 79.81-119.715 201.741-125.257 207.284-2.217 2.217-4.434 3.325-7.759 3.325-3.326 0-5.543-1.108-7.76-3.325-5.542-5.543-125.257-128.583-125.257-207.284Z" fill="#0B9072"/></mask><g mask="url(#a)"><path fill="#0099AF" d="m199.369 199.819 93.032 93.032-94.525 94.525-93.032-93.032z"/><path d="m202.541 207.688 98.012 91.011c78.409-97.078 54.451-191.356 32.671-226.36L202.541 207.688Z" fill="#051173"/><path fill="#53C5D5" d="M103.691 275.691 309.633 69.749l27.095 27.095-205.942 205.942z"/><path fill="#53C5D5" d="m220.3 200.688 84.884 84.884-27.095 27.095-84.884-84.884z"/></g><circle cx="197.874" cy="168.017" r="79.343" fill="#E4EBEC"/><g clip-path="url(#b)"><path d="M224.264 171.33c6.249-1.226 10.982-5.066 12.302-13.224 1.821-11.143-6.946-17.392-18.966-21.723l4.031-15.053-9.528-2.554-3.93 14.656a410.534 410.534 0 0 0-7.633-1.941l3.951-14.752-9.52-2.552-4.034 15.049a327.801 327.801 0 0 1-6.088-1.547l.011-.045-13.141-3.526-2.62 9.784s7.071 1.758 6.922 1.851c3.857 1.036 4.54 3.529 4.403 5.486l-4.591 17.148-6.454 24.088c-.483 1.121-1.698 2.795-4.396 2.075.095.137-6.931-1.858-6.931-1.858l-4.822 10.435 12.398 3.322c2.309.621 4.57 1.264 6.792 1.878l-4.071 15.225 9.517 2.552 4.034-15.064c2.604.753 5.126 1.453 7.595 2.111l-4.02 14.992 9.528 2.553 4.078-15.196c16.253 3.407 28.505 2.531 33.775-11.562 4.245-11.346-.061-18.072-8.592-22.608Zm-26.382-29.008c5.374 1.44 22.716 4.323 19.825 15.121-2.776 10.35-19.347 4.614-24.727 3.173l4.902-18.294Zm-12.785 47.698 5.409-20.169c6.457 1.728 27.186 5.369 24.009 17.237-3.047 11.382-22.956 4.658-29.418 2.932Z" fill="#0B9072"/></g><defs><clipPath id="b"><path fill="#fff" transform="rotate(15 -317.81 709.087)" d="M0 0h83.976v106.37H0z"/></clipPath></defs></svg>

<svg width="400" height="400" viewBox="0 0 400 400" fill="none" xmlns="http://www.w3.org/2000/svg">
<path d="M67.1924 161.016C67.1924 77.881 134.809 28 200.209 28C265.608 28 333.225 77.881 333.225 161.016C333.225 240.826 213.51 362.757 207.968 368.3C205.751 370.517 203.534 371.625 200.209 371.625C196.883 371.625 194.666 370.517 192.449 368.3C186.907 362.757 67.1924 239.717 67.1924 161.016Z" fill="#0B9072"/>
<mask id="mask0_116_861" style="mask-type:alpha" maskUnits="userSpaceOnUse" x="67" y="28" width="267" height="344">
<path d="M67.1924 161.016C67.1924 77.881 134.809 28 200.209 28C265.608 28 333.225 77.881 333.225 161.016C333.225 240.826 213.51 362.757 207.968 368.3C205.751 370.517 203.534 371.625 200.209 371.625C196.883 371.625 194.666 370.517 192.449 368.3C186.907 362.757 67.1924 239.717 67.1924 161.016Z" fill="#0B9072"/>
</mask>
<g mask="url(#mask0_116_861)">
<rect x="199.369" y="199.819" width="131.567" height="133.678" transform="rotate(45 199.369 199.819)" fill="#0099AF"/>
<path d="M202.541 207.688L300.553 298.699C378.962 201.621 355.004 107.343 333.224 72.3386L202.541 207.688Z" fill="#051173"/>
<rect x="103.691" y="275.691" width="291.246" height="38.318" transform="rotate(-45 103.691 275.691)" fill="#53C5D5"/>
<rect x="220.3" y="200.688" width="120.044" height="38.318" transform="rotate(45 220.3 200.688)" fill="#53C5D5"/>
</g>
<circle cx="197.874" cy="168.017" r="79.343" fill="#E4EBEC"/>
<g clip-path="url(#clip0_116_861)">
<path d="M224.264 171.33C230.513 170.104 235.246 166.264 236.566 158.106C238.387 146.963 229.62 140.714 217.6 136.383L221.631 121.33L212.103 118.776L208.173 133.432C205.666 132.761 203.098 132.123 200.54 131.491L204.491 116.739L194.971 114.187L190.937 129.236C188.863 128.723 186.827 128.219 184.849 127.689L184.86 127.644L171.719 124.118L169.099 133.902C169.099 133.902 176.17 135.66 176.021 135.753C179.878 136.789 180.561 139.282 180.424 141.239L175.833 158.387L169.379 182.475C168.896 183.596 167.681 185.27 164.983 184.55C165.078 184.687 158.052 182.692 158.052 182.692L153.23 193.127L165.628 196.449C167.937 197.07 170.198 197.713 172.42 198.327L168.349 213.552L177.866 216.104L181.9 201.04C184.504 201.793 187.026 202.493 189.495 203.151L185.475 218.143L195.003 220.696L199.081 205.5C215.334 208.907 227.586 208.031 232.856 193.938C237.101 182.592 232.795 175.866 224.264 171.33ZM197.882 142.322C203.256 143.762 220.598 146.645 217.707 157.443C214.931 167.793 198.36 162.057 192.98 160.616L197.882 142.322ZM185.097 190.02L190.506 169.851C196.963 171.579 217.692 175.22 214.515 187.088C211.468 198.47 191.559 191.746 185.097 190.02Z" fill="#0B9072"/>
</g>
<defs>
<clipPath id="clip0_116_861">
<rect width="83.9761" height="106.37" fill="white" transform="translate(172.696 106.417) rotate(15)"/>
</clipPath>
</defs>
</svg>
